X: 38268
T: St. Brigid's
R: jig
M: 6/8
K: Gmajor
|:A|"D" DFA "D" AFA|"G" BdB "D" AFA|"D" DFA "D" AFA|"G" GBG "C" F2 E|
"D" DFA "D" AFA|"G" BdB "D" AFA|"Bm" B3 "D" AFA|"C" de "G" d d2:|
A|"C" ded "G" B2 d|"Bm" ABA "D" AFA|"C" ded "G" B2 d|"D" AFA "Bm" B2 A|
"C" ded "G" B2 d|"Bm" ABA "D" AFA|"Bm" B3 "D" AFA|"C" ded "D" d2A|
"C" ded "G" B2 d|"Bm" ABA "D" AFA|"C" d2 c "G" B2 d|"D" AFA "Bm" B2 A|
"C" ded "G" B2 d|"Bm" ABA "D" AFA|"Bm" B3 "D" AFA|"C" ded "G" d3||

